X: 10842
M: 6/8
L: 1/8
K: G
d2d fef | d2d fef | dfa agf | efd ^cBA |\
d2d fef | d2d fef |]
dfa agf | ge^c d3 | def g2g | gfe d3 |\
dcd edc | BAG "^D.C."d2 |]


